packages/flutter/assets/icons/keyboard-arrow-left.svg

<?xml version="1.0" encoding="UTF-8"?>
<svg width="24px" height="24px" viewBox="0 0 24 24" version="1.1" xmlns="http://www.w3.org/2000/svg" xmlns:xlink="http://www.w3.org/1999/xlink">
    <title>keyboard_arrow_left</title>
    <g id="keyboard_arrow_left" stroke="none" stroke-width="1" fill="none" fill-rule="evenodd">
        <path d="M14.6464466,5.64644661 C14.8417088,5.45118446 15.1582912,5.45118446 15.3535534,5.64644661 C15.5271197,5.82001296 15.5464049,6.08943736 15.4114088,6.2843055 L15.3535534,6.35355339 L9.707,12 L15.3535534,17.6464466 C15.5271197,17.820013 15.5464049,18.0894374 15.4114088,18.2843055 L15.3535534,18.3535534 C15.179987,18.5271197 14.9105626,18.5464049 14.7156945,18.4114088 L14.6464466,18.3535534 L8.64644661,12.3535534 C8.47288026,12.179987 8.45359511,11.9105626 8.58859116,11.7156945 L8.64644661,11.6464466 L14.6464466,5.64644661 Z" id="Path-7" fill="#303846"></path>
    </g>
</svg>

<svg xmlns="http://www.w3.org/2000/svg" width="24" height="24" viewBox="0 0 24 24"><path fill-rule="evenodd" d="M14.646 5.646a.5.5 0 0 1 .765.638l-.057.07L9.707 12l5.647 5.646a.5.5 0 0 1 .057.638l-.057.07a.5.5 0 0 1-.638.057l-.07-.057-6-6a.5.5 0 0 1-.057-.638l.057-.07 6-6z"/></svg>
